images/TAKAMURA.svg

<svg fill="none" height="207" viewBox="0 0 1107 207" width="1107" xmlns="http://www.w3.org/2000/svg"><path d="m115 0v40.5h-31.25v161.875h-52.625v-161.875h-31.125v-40.5zm102.875 0 30.125 202.375h-53.875l-2.625-36.375h-18.875l-3.125 36.375h-54.5l26.75-202.375zm-27.875 130.125c-2.667-22.917-5.333-51.2083-8-84.875-5.333 38.6667-8.667 66.958-10 84.875zm192.375-130.125-30.125 91.375 33 111h-54.375l-21.25-86.75v86.75h-52.625v-202.375h52.625v78.625l23.375-78.625zm103 0 30.125 202.375h-53.875l-2.625-36.375h-18.875l-3.125 36.375h-54.5l26.75-202.375zm-27.875 130.125c-2.667-22.917-5.333-51.2083-8-84.875-5.333 38.6667-8.667 66.958-10 84.875zm229.375-130.125v202.375h-46v-136.625l-18.375 136.625h-32.625l-19.375-133.5v133.5h-46v-202.375h68.125c2 12.1667 4.125 26.5 6.375 43l7.25 51.5 12-94.5zm140.75 0v135.25c0 15.333-.5 26.125-1.5 32.375-1 6.167-3.958 12.542-8.875 19.125-4.917 6.5-11.417 11.458-19.5 14.875-8 3.333-17.458 5-28.375 5-12.083 0-22.75-2-32-6s-16.167-9.208-20.75-15.625-7.292-13.167-8.125-20.25c-.833-7.167-1.25-22.167-1.25-45v-119.75h52.625v151.75c0 8.833.458 14.5 1.375 17 1 2.417 2.958 3.625 5.875 3.625 3.333 0 5.458-1.333 6.375-4 1-2.75 1.5-9.167 1.5-19.25v-149.125zm20.375 0h37.25c24.833 0 41.625.958333 50.375 2.875 8.833 1.91667 16 6.83333 21.5 14.75 5.583 7.8333 8.375 20.375 8.375 37.625 0 15.75-1.958 26.3333-5.875 31.75s-11.625 8.6667-23.125 9.75c10.417 2.5833 17.417 6.042 21 10.375s5.792 8.333 6.625 12c.917 3.583 1.375 13.542 1.375 29.875v53.375h-48.875v-67.25c0-10.833-.875-17.542-2.625-20.125-1.667-2.583-6.125-3.875-13.375-3.875v91.25h-52.625zm52.625 34.625v45c5.917 0 10.042-.7917 12.375-2.375 2.417-1.6667 3.625-6.9583 3.625-15.875v-11.125c0-6.4167-1.167-10.625-3.5-12.625-2.25-2-6.417-3-12.5-3zm176.255-34.625 30.12 202.375h-53.88l-2.62-36.375h-18.88l-3.12 36.375h-54.5l26.75-202.375zm-27.88 130.125c-2.67-22.917-5.33-51.2083-8-84.875-5.33 38.6667-8.67 66.958-10 84.875z" fill="#f8f8f2"/></svg>

<svg width="1107" height="207" viewBox="0 0 1107 207" fill="none" xmlns="http://www.w3.org/2000/svg">
<path d="M115 0V40.5H83.75V202.375H31.125V40.5H0V0H115ZM217.875 0L248 202.375H194.125L191.5 166H172.625L169.5 202.375H115L141.75 0H217.875ZM190 130.125C187.333 107.208 184.667 78.9167 182 45.25C176.667 83.9167 173.333 112.208 172 130.125H190ZM382.375 0L352.25 91.375L385.25 202.375H330.875L309.625 115.625V202.375H257V0H309.625V78.625L333 0H382.375ZM485.375 0L515.5 202.375H461.625L459 166H440.125L437 202.375H382.5L409.25 0H485.375ZM457.5 130.125C454.833 107.208 452.167 78.9167 449.5 45.25C444.167 83.9167 440.833 112.208 439.5 130.125H457.5ZM686.875 0V202.375H640.875V65.75L622.5 202.375H589.875L570.5 68.875V202.375H524.5V0H592.625C594.625 12.1667 596.75 26.5 599 43L606.25 94.5L618.25 0H686.875ZM827.625 0V135.25C827.625 150.583 827.125 161.375 826.125 167.625C825.125 173.792 822.167 180.167 817.25 186.75C812.333 193.25 805.833 198.208 797.75 201.625C789.75 204.958 780.292 206.625 769.375 206.625C757.292 206.625 746.625 204.625 737.375 200.625C728.125 196.625 721.208 191.417 716.625 185C712.042 178.583 709.333 171.833 708.5 164.75C707.667 157.583 707.25 142.583 707.25 119.75V0H759.875V151.75C759.875 160.583 760.333 166.25 761.25 168.75C762.25 171.167 764.208 172.375 767.125 172.375C770.458 172.375 772.583 171.042 773.5 168.375C774.5 165.625 775 159.208 775 149.125V0H827.625ZM848 0H885.25C910.083 0 926.875 0.958333 935.625 2.875C944.458 4.79167 951.625 9.70833 957.125 17.625C962.708 25.4583 965.5 38 965.5 55.25C965.5 71 963.542 81.5833 959.625 87C955.708 92.4167 948 95.6667 936.5 96.75C946.917 99.3333 953.917 102.792 957.5 107.125C961.083 111.458 963.292 115.458 964.125 119.125C965.042 122.708 965.5 132.667 965.5 149V202.375H916.625V135.125C916.625 124.292 915.75 117.583 914 115C912.333 112.417 907.875 111.125 900.625 111.125V202.375H848V0ZM900.625 34.625V79.625C906.542 79.625 910.667 78.8333 913 77.25C915.417 75.5833 916.625 70.2917 916.625 61.375V50.25C916.625 43.8333 915.458 39.625 913.125 37.625C910.875 35.625 906.708 34.625 900.625 34.625ZM1076.88 0L1107 202.375H1053.12L1050.5 166H1031.62L1028.5 202.375H974L1000.75 0H1076.88ZM1049 130.125C1046.33 107.208 1043.67 78.9167 1041 45.25C1035.67 83.9167 1032.33 112.208 1031 130.125H1049Z" fill="#F8F8F2"/>
</svg>
